X: 41545
T: Undertow, The
R: reel
M: 4/4
K: Dmixolydian
|AGED E2EG|ABcd ecA2|B2BA GABG|AGAB cde2|AGED E2EG|ABcd ecA2|g2 (3gfe fde2|cABc A4:|
G2GA BGAB|ABcd ecA2|({d}e2)e2 d2e2|cBcd ecA2|G2GA BGAB|ABcd ecA2|g2 (3gfe fde2|cABc A4:|

